Collapse/img/countries/flag_europe.svg

<svg width="21" height="20" viewBox="0 0 21 20" fill="none" xmlns="http://www.w3.org/2000/svg">
<g clip-path="url(#clip0_684_14608)">
<path d="M10.5 20C16.0228 20 20.5 15.5228 20.5 10C20.5 4.47715 16.0228 0 10.5 0C4.97715 0 0.5 4.47715 0.5 10C0.5 15.5228 4.97715 20 10.5 20Z" fill="#0052B4"/>
<path d="M10.5001 3.91309L10.8239 4.90953H11.8716L11.024 5.52535L11.3478 6.5218L10.5001 5.90594L9.65249 6.5218L9.97628 5.52535L9.12866 4.90953H10.1764L10.5001 3.91309Z" fill="#FFDA44"/>
<path d="M6.19627 5.69582L7.12986 6.17145L7.87068 5.43066L7.70674 6.46543L8.64029 6.94109L7.60549 7.105L7.44158 8.13984L6.96592 7.20629L5.93115 7.37023L6.67197 6.62941L6.19627 5.69582Z" fill="#FFDA44"/>
<path d="M4.41309 10.0002L5.40953 9.67636V8.62866L6.02531 9.47632L7.0218 9.15253L6.4059 10.0002L7.0218 10.8478L6.02531 10.524L5.40953 11.3716V10.3239L4.41309 10.0002Z" fill="#FFDA44"/>
<path d="M6.19627 14.3041L6.67193 13.3705L5.93115 12.6297L6.96596 12.7937L7.44154 11.8601L7.60549 12.8949L8.64025 13.0588L7.70682 13.5345L7.87068 14.5692L7.12986 13.8284L6.19627 14.3041Z" fill="#FFDA44"/>
<path d="M10.5001 16.0871L10.1763 15.0907H9.12866L9.97631 14.4749L9.65249 13.4785L10.5001 14.0943L11.3478 13.4785L11.024 14.4749L11.8716 15.0907H10.8239L10.5001 16.0871Z" fill="#FFDA44"/>
<path d="M14.8041 14.3041L13.8705 13.8285L13.1296 14.5693L13.2936 13.5344L12.3601 13.0588L13.3949 12.8949L13.5588 11.8601L14.0344 12.7937L15.0692 12.6297L14.3283 13.3706L14.8041 14.3041Z" fill="#FFDA44"/>
<path d="M16.5869 10.0002L15.5905 10.3239V11.3716L14.9746 10.524L13.9783 10.8478L14.5941 10.0002L13.9783 9.15253L14.9747 9.47632L15.5905 8.62866V9.6764L16.5869 10.0002Z" fill="#FFDA44"/>
<path d="M14.8041 5.69578L14.3284 6.62938L15.0692 7.3702L14.0344 7.20621L13.5588 8.13977L13.3949 7.10496L12.3601 6.94102L13.2936 6.46539L13.1296 5.43066L13.8705 6.17145L14.8041 5.69578Z" fill="#FFDA44"/>
</g>
<defs>
<clipPath id="clip0_684_14608">
<rect width="20" height="20" fill="white" transform="translate(0.5)"/>
</clipPath>
</defs>
</svg>

<svg width="21" height="20" fill="none" xmlns="http://www.w3.org/2000/svg"><g clip-path="url(#clip0_684_14608)"><path d="M10.5 20c5.523 0 10-4.477 10-10s-4.477-10-10-10S.5 4.477.5 10s4.477 10 10 10z" fill="#0052B4"/><path d="M10.5 3.913l.324.997h1.048l-.848.615.324.997-.848-.616-.848.616.324-.997-.847-.615h1.047l.324-.997zM6.196 5.696l.934.475.74-.74-.163 1.034.933.476-1.035.164-.163 1.035-.476-.934-1.035.164.741-.74-.476-.934zM4.413 10l.997-.324V8.63l.615.847.997-.323-.616.847.616.848-.997-.324-.615.848v-1.048L4.413 10zm1.783 4.304l.476-.934-.74-.74 1.034.164.476-.934.163 1.035 1.035.164-.933.476.164 1.034-.741-.74-.934.475zm4.304 1.783l-.324-.996H9.13l.847-.616-.324-.996.848.615.848-.615-.324.996.848.616h-1.048l-.324.996zm4.304-1.783l-.934-.476-.74.741.164-1.035-.934-.475 1.035-.164.164-1.035.475.934 1.035-.164-.74.74.475.934zM16.587 10l-.996.324v1.048l-.616-.848-.997.324.616-.848-.616-.847.997.323.616-.847v1.047l.996.324zm-1.783-4.304l-.476.933.741.741-1.035-.164-.475.934-.164-1.035-1.035-.164.934-.476-.164-1.034.74.74.934-.475z" fill="#FFDA44"/></g><defs><clipPath id="clip0_684_14608"><path fill="#fff" transform="translate(.5)" d="M0 0h20v20H0z"/></clipPath></defs></svg>
